X: 4
T: 4. Miss Adam's Waltz
M: 3/8
L: 1/8
Q: 1/8=180
K: Eb
B, !segno!| E(G/F/)E | EBG | F{G/}(F/E/F/A/) | GEB, | E(G/F/)E | EBG | F{G/}(F/E/F/A/) | E2 !fine! :|!
e/d/ | {d/}cB e/d/ | {d/}cB e/d/ | {d/}c/B/c/B/c/d/ | eB e/d/ | {d/}cB e/d/ | {d/}cB e/d/ | c/B/A/G/F/E/ | (BB/)A/G/F/ |!
E(G/F/)E | EBG | F{G/}(F/E/F/A/) | GEB, | E(G/F/)E | EBG | F{G/}(F/E/F/A/) | E2 ||!
(b/g/) |(e/g/) B (b/g/) | e/g/ B e/d/ | {d/}c/B/c/B/c/d/ | eB (b/g/) | (e/g/) B (b/g/) |  e/g/ B e/d/ | d/f/d/B/c/=A/ | B/c/B/A/G/F/ !segno!"_D.C."|]

